core/assets/icons/doveryak.svg

<svg width="24" height="24" viewBox="0 0 24 24" xmlns="http://www.w3.org/2000/svg"><g id="doveryak" clip-path="url(#clip0_3692_10310)"><path id="Vector" d="M13.5 12H9V14H11V15H13V14H13.5C14.163 14 14.7989 13.7366 15.2678 13.2678C15.7366 12.7989 16 12.163 16 11.5C16 10.837 15.7366 10.2011 15.2678 9.73223C14.7989 9.26339 14.163 9 13.5 9H10.5C10.3674 9 10.2402 8.94732 10.1464 8.85355C10.0527 8.75979 10 8.63261 10 8.5C10 8.36739 10.0527 8.24021 10.1464 8.14645C10.2402 8.05268 10.3674 8 10.5 8H15V6H13V5H11V6H10.5C9.83696 6 9.20107 6.26339 8.73223 6.73223C8.26339 7.20107 8 7.83696 8 8.5C8 9.16304 8.26339 9.79893 8.73223 10.2678C9.20107 10.7366 9.83696 11 10.5 11H13.5C13.6326 11 13.7598 11.0527 13.8536 11.1464C13.9473 11.2402 14 11.3674 14 11.5C14 11.6326 13.9473 11.7598 13.8536 11.8536C13.7598 11.9473 13.6326 12 13.5 12Z"/><path id="Vector_2" d="M7 4V20H17V4H7ZM6 2H18C18.2652 2 18.5196 2.10536 18.7071 2.29289C18.8946 2.48043 19 2.73478 19 3V21C19 21.2652 18.8946 21.5196 18.7071 21.7071C18.5196 21.8946 18.2652 22 18 22H6C5.73478 22 5.48043 21.8946 5.29289 21.7071C5.10536 21.5196 5 21.2652 5 21V3C5 2.73478 5.10536 2.48043 5.29289 2.29289C5.48043 2.10536 5.73478 2 6 2ZM12 17C12.2652 17 12.5196 17.1054 12.7071 17.2929C12.8946 17.4804 13 17.7348 13 18C13 18.2652 12.8946 18.5196 12.7071 18.7071C12.5196 18.8946 12.2652 19 12 19C11.7348 19 11.4804 18.8946 11.2929 18.7071C11.1054 18.5196 11 18.2652 11 18C11 17.7348 11.1054 17.4804 11.2929 17.2929C11.4804 17.1054 11.7348 17 12 17Z"/></g><defs><clipPath id="clip0_3692_10310"><rect width="24" height="24"/></clipPath></defs></svg>

<svg xmlns="http://www.w3.org/2000/svg" width="24" height="24" fill="none"><g fill="#191C22" clip-path="url(#a)"><path d="M13.5 12H9v2h2v1h2v-1h.5a2.5 2.5 0 0 0 0-5h-3a.5.5 0 0 1 0-1H15V6h-2V5h-2v1h-.5a2.5 2.5 0 1 0 0 5h3a.5.5 0 0 1 0 1Z"/><path d="M7 4v16h10V4H7ZM6 2h12a1 1 0 0 1 1 1v18a1 1 0 0 1-1 1H6a1 1 0 0 1-1-1V3a1 1 0 0 1 1-1Zm6 15a1 1 0 1 1 0 2 1 1 0 0 1 0-2Z"/></g><defs><clipPath id="a"><path fill="#fff" d="M0 0h24v24H0z"/></clipPath></defs></svg>
